X: 222
T: a Stranger in Cork   #2
R: air, waltz
%S: s:2 b:9(5+4)
B: O'Neill's 1850 #222
O: J.O'Brien
Z: 1997 by John Chambers <jc@trillian.mit.edu>
N: Compacted via repeats and multiple endings [JC]
N: Compacted by using labels and play order [JC]
P: Play A1B BA2
Q: "Moderate"
M: 3/4
L: 1/8
K: G
"^A"[| (dc) | (B2 G2 E2) | (D2 B,2 D2) | (E2 G2) [1 .A2 | "^ ->B"G4 |]2 .G2 | HG4 |]
"^B"|:  D2  | (G2 B2 d2) |  d2 B2  d2  | (e2 d2) .B2 | "^ ->A2"A4 :|
